!!!COM: Anon.
!!!OTL: If I go
!!!MPN: Maisuiaksis [Holding Eagle]
!!!ODT: <1918//
!!!MLC: Fort Berthold Reservation, North Dakota, United States of America
!! Song was recorded during either the summer of 1912, 1915, or 1918.
!!!AGN: monody
!!!AST: Mandan and Hidatsa Men's Dog Society
!!!AMT: irregular
!!!RWG: Transcribed pitches, durations, and meters are only approximate.
!! Drum Tempo: MM76
!! Drum-rhythm: (8 8) (8 8) (8 8) (8 8)
**kern
*ICvox
*Imale
*clefF4
*k[f#]
*M3/4
*MM76
16e
=1
2e
8B
8r
=2
2e
4B
*M2/4
=3
16e
8.B
4B
*M3/4
=4
16e
8.B
4r
8.B
16B
=5
2e
8.B
16B
*M2/4
=6
8G
16G
16G
8G
8E
*M3/4
=7
16G
8.E
4.E
8BB
=8
8E
8G
8E
8E
8E
16D#
16D#
*M2/4
=9
8.BB
16BB
4BB
*M3/4
=10
2BB
8.B
16B
=11
2e
8e
16B
16B
*M2/4
=12
8G
16G
16G
8G
8E
*M3/4
=13
8G
8E
8.E
16D#
4BB
=14
8E
16G
16G
8E
8E
8E
16D#
16D#
*M2/4
=15
8.BB
16BB
4BB
=16
2BB
==
*-
!!!CNT: Hidatsa
!!!TXO: Hidatsa
!!!OCY: United States
!!!OCL: Frances Densmore
!!!YOR: Frances Densmore, "Mandan and Hidatsa Music",
!!!YOR: Bulletin 80, page 134, No. 65
!!!PPR: Smithsonian Institution, Bureau of American Ethnology
!!!PPR: Government Printing Office
!!!PDT: 1923
!!!PPP: Washington, DC, United States of America
!!!YEC: Electronic Copyright 2000 David Huron
!!!YER: August 2000
!!!YEN: United States of America
!!!ENC: David Huron
!!!RDT: August 17, 2000
!!!EEV: Release 1.0
!!!AIN: tom, vox
